img/svg/mail.svg

<?xml version="1.0" encoding="utf-8"?>
<!DOCTYPE svg PUBLIC "-//W3C//DTD SVG 1.1//EN" "http://www.w3.org/Graphics/SVG/1.1/DTD/svg11.dtd">
<svg version="1.1" baseProfile="full"
 xmlns="http://www.w3.org/2000/svg"
 xmlns:xlink="http://www.w3.org/1999/xlink"
 xmlns:ev="http://www.w3.org/2001/xml-events" 
  height="14px" 
  width="19px" 
>
<path fill="rgb( 171, 187, 193 )"
 d="M0.69299999999998,0.006 C0.69299999999998,0.006 0.71100000000001,0.006 0.71100000000001,0.006 C0.71100000000001,0.006 17.3130000000001,0.006 17.3130000000001,0.006 C17.6969999999999,0.006 18.0039999999999,0.295 18.0039999999999,0.649 C18.0039999999999,0.649 18.0039999999999,0.66500000000001 18.0039999999999,0.66500000000001 C18.0039999999999,0.66500000000001 18.0039999999999,12.364 18.0039999999999,12.364 C18.0039999999999,12.719 17.6969999999999,13.005 17.3130000000001,13.005 C17.3130000000001,13.005 17.2940000000001,13.005 17.2940000000001,13.005 C17.2940000000001,13.005 0.69299999999998,13.005 0.69299999999998,13.005 C0.3119999999999,13.005 0,12.719 0,12.364 C0,12.364 0,12.346 0,12.346 C0,12.346 0,0.649 0,0.649 C0,0.295 0.3119999999999,0.006 0.69299999999998,0.006 C0.69299999999998,0.006 0.69299999999998,0.006 0.69299999999998,0.006 ZM16.6199999999999,1.845 C16.6199999999999,1.845 16.6199999999999,1.845 16.6199999999999,1.845 C16.6199999999999,1.845 9.29899999999998,8.61499999999999 9.29899999999998,8.61499999999999 C9.13699999999994,8.767 8.86899999999991,8.767 8.70900000000006,8.61499999999999 C8.70900000000006,8.61499999999999 1.38599999999997,1.845 1.38599999999997,1.845 C1.38599999999997,1.845 1.38599999999997,11.721 1.38599999999997,11.721 C1.38599999999997,11.721 16.6199999999999,11.721 16.6199999999999,11.721 C16.6199999999999,11.721 16.6199999999999,1.845 16.6199999999999,1.845 C16.6199999999999,1.845 16.6199999999999,1.845 16.6199999999999,1.845 ZM16.05,1.285 C16.05,1.285 16.05,1.285 16.05,1.285 C16.05,1.285 1.9559999999999,1.285 1.9559999999999,1.285 C1.9559999999999,1.285 9.00399999999991,7.80200000000001 9.00399999999991,7.80200000000001 C9.00399999999991,7.80200000000001 16.05,1.285 16.05,1.285 C16.05,1.285 16.05,1.285 16.05,1.285 Z "/>
</svg>

<svg baseProfile="full" xmlns="http://www.w3.org/2000/svg" height="14" width="19"><path fill="rgb( 171, 187, 193 )" d="M.693.006h16.62c.384 0 .691.289.691.643v11.715c0 .355-.307.641-.691.641h-16.619999999999997c-.381 0-.693-.286-.693-.641v-11.715c0-.354.312-.643.693-.643zm15.927 1.839l-7.321 6.77c-.162.152-.43.152-.59 0l-7.323-6.77v9.876h15.234v-9.876zm-.57-.56h-14.094l7.048 6.517 7.046-6.517z"/></svg>
